X:1
T:Title
%%score [ ( 1 2 3 ) ( 4 5 6 ) ]
L:1/8
Q:1/4=100
M:4/4
K:F
V:1 treble nm="Midi_74"
V:2 treble 
V:3 treble 
V:4 bass nm="Midi_69"
V:5 bass 
V:6 bass 
V:1
"^St Cross (L.M.)""^John Bacchus Dykes\n(1823-76)""^Frederick William Faber\n(1814-63)""^O come and mourn with me awhile" F4 F2 G2 | %1
 A6 d2 | c4 B4 | A8 | A4 A2 B2 | c4 F4 | A4 G4 | F6 x2 || A2 x6 | A6 A2 x2 | G4 A4 | F4 G4 | E8 | %13
 D4 D2 D2 | A6 G2 | F4 E4 | D8 |] %17
V:2
 D4 D2 E2 | F6 F2 | (F2 C2) (D2 E2) | F8 | F4 E2 D2 | C4 F4 | F4 E4 | x8 || x8 | x8 x2 | x8 | x8 | %12
w: O come and|mourn with|me * a\- *|while;|O come ye||Sa- viour's||||||
w: Have we no|tears to|shed * for *|Him,|While sol- diers||men de-||||||
w: ~~Seven times he|spake, seven|words * of *|love;|And all three||si- lence||||||
w: O break, O|break, hard|heart * of *|mine!|Thy weak self\-||guil- ty||||||
w: A bro- ken|heart, a|fount * of *|tears,|Ask, and they||be de-||||||
w: O love of|God! O|sin * of *|man!|In this dread||strength is||||||
 x4 =C2 B,2 | A,2 D2 C2 B,2 | x8 | x8 | x8 |] %17
w: |||||
w: |||||
w: |||||
w: |||||
w: |||||
w: |||||
V:3
 x8 | x8 | x8 | x8 | x8 | x8 | x8 | F6 x2 || C2 x6 | C6 D2 x2 | D4 ^C4 | D4 (E2 D2) | ^C8 | %13
w: |||||||side;|O|come, to-|geth- er|let us *|mourn:|
w: |||||||ride?|Ah!|look how|pa- tient-|ly He *|hangs:|
w: |||||||cried|For|mer- cy|on the|souls of *|men:|
w: |||||||pride|His|Pi- late|and His|Ju- das *|were:|
w: |||||||nied;|A|bro- ken|heart love's|cra- dle *|is:|
w: |||||||tried,|And|vic- to-|ry re-|mains with *|love:|
 D4 D2 D2 | A6 D2 | D4 ^C4 | D8 |] %17
w: Je- sus, our|Lord, is|cru- ci-|fied!|
w: Je- sus, our|Lord, is|cru- ci-|fied!|
w: Je- sus, our|Lord, is|cru- ci-|fied!|
w: Je- sus, our|Lord, is|cru- ci-|fied!|
w: Je- sus, our|Lord, is|cru- ci-|fied!|
w: Je- sus, our|Lord, is|cru- ci-|fied!|
V:4
 A,4 A,2 C2 | C6 B,2 | A,6 G,2 | A,8 | F,4 F,2 F,2 | (F,2 G,2) (A,2 B,2) | C6 B,2 | A,6 x2 || %8
w: |||||to * the *|||
w: |||||scoff * and *|||
w: |||||hours * His *|||
w: |||||love * and *|||
w: |||||will * not *|||
w: |||||act * your *|||
 A,2 x6 | A,6 A,2 x2 | B,4 A,4 | A,4 B,4 | A,8 | D,4 D,2 D,2 | A,6 B,2 | A,4 G,4 | F,8 |] %17
w: |||||||||
w: |||||||||
w: |||||||||
w: |||||||||
w: |||||||||
w: |||||||||
V:5
 D,4 D,2 C,2 | F,6 B,,2 | C,4 C,4 | F,8 | D,4 C,2 B,,2 | A,,4 D,4 | C,4 C,4 | x8 || x8 | x8 x2 | %10
 x8 | x8 | B,,4 A,,2 G,,2 | F,,6 x2 | x8 | x8 | x8 |] %17
V:6
 x8 | x8 | x8 | x8 | x8 | x8 | x8 | F,,6 x2 || F,2 F,6 | F,2 E,4 A,,4 | D,4 G,,4 | A,,8 | %12
 D,4 D,2 D,2 | A,6 G,,2 | A,,4 A,,4 | D,8 | x8 |] %17

